icons/carets-out-bottom-left-top-right.svg

<svg xmlns="http://www.w3.org/2000/svg" width="24" height="24" viewBox="0 0 24 24">
  <path d="M3,13.4142136 C3.26521649,13.4142136 3.5195704,13.5195704 3.70710678,13.7071068 L10.2928932,20.2928932 C10.6834175,20.6834175 10.6834175,21.3165825 10.2928932,21.7071068 C10.1053568,21.8946432 9.85100293,22 9.58578644,22 L3,22 C2.44771525,22 2,21.5522847 2,21 L2,14.4142136 C2,13.8619288 2.44771525,13.4142136 3,13.4142136 Z M21,2 C21.5522847,2 22,2.44771525 22,3 L22,9.58578644 C22,10.1380712 21.5522847,10.5857864 21,10.5857864 C20.7347835,10.5857864 20.4804296,10.4804296 20.2928932,10.2928932 L13.7071068,3.70710678 C13.3165825,3.31658249 13.3165825,2.68341751 13.7071068,2.29289322 C13.8946432,2.10535684 14.1489971,2 14.4142136,2 L21,2 Z"/>
</svg>

<svg xmlns="http://www.w3.org/2000/svg" viewBox="0 0 24 24">
  <path d="M3 13.41a1 1 0 0 1 .7.3l6.6 6.58A1 1 0 0 1 9.58 22H3a1 1 0 0 1-1-1v-6.59a1 1 0 0 1 1-1zM21 2a1 1 0 0 1 1 1v6.59a1 1 0 0 1-1.7.7l-6.6-6.58A1 1 0 0 1 14.42 2H21z"/>
</svg>
